dist/svgs/core-ui-icons/brand/cib-haskell.svg

<svg xmlns="http://www.w3.org/2000/svg" width="32" height="32" viewBox="0 0 32 32">
  <path d="M0.011 27.292l7.52-11.292-7.52-11.292h5.645l7.563 11.292-7.563 11.292zM7.531 27.292l7.521-11.292-7.521-11.292h5.688l15.005 22.584h-5.631l-4.713-7.12-4.661 7.12zM25.735 20.697l-2.505-3.765h8.76v3.765zM21.964 15.052l-2.5-3.765h12.515v3.765z"/>
</svg>

<svg xmlns="http://www.w3.org/2000/svg" viewBox="0 0 32 32"><path d="M.011 27.292L7.531 16 .011 4.708h5.645L13.219 16 5.656 27.292zm7.52 0L15.052 16 7.531 4.708h5.688l15.005 22.584h-5.631l-4.713-7.12-4.661 7.12zm18.204-6.595l-2.505-3.765h8.76v3.765zm-3.771-5.645l-2.5-3.765h12.515v3.765z"/></svg>
